Yaru++/actions/16/align-vertical-top-to-anchor.svg

<svg viewBox="0 0 24 24" xmlns="http://www.w3.org/2000/svg"><path d="m14 4v3 1h5 1v-3-1zm-10 6v1h16v-1zm0 3v6 1h5 1v-6-1zm10 0v6h6v-6zm-9 1h4v5h-4zm10 0h4v4h-4z" fill="#808080"/></svg>

<svg xmlns="http://www.w3.org/2000/svg" viewBox="0 0 24 24">
 <defs>
  <style id="current-color-scheme" type="text/css">
   .ColorScheme-Text { color:#808080; }
  </style>
 </defs>
 <path fill="#808080" class="ColorScheme-Text" d="M 14 4 L 14 7 L 14 8 L 19 8 L 20 8 L 20 5 L 20 4 L 14 4 z M 4 10 L 4 11 L 20 11 L 20 10 L 4 10 z M 4 13 L 4 19 L 4 20 L 9 20 L 10 20 L 10 14 L 10 13 L 4 13 z M 14 13 L 14 19 L 20 19 L 20 13 L 14 13 z M 5 14 L 9 14 L 9 19 L 5 19 L 5 14 z M 15 14 L 19 14 L 19 18 L 15 18 L 15 14 z"/>
</svg>
